contributed-vectors/ludo_king.svg

<svg xmlns="http://www.w3.org/2000/svg" width="192" height="192" fill="none"><g clip-path="url(#a)"><g clip-path="url(#b)"><path fill="#fff" d="M67.2 78.3c16.1 0 29.2-13.1 29.2-29.2S83.3 20 67.2 20 38 33.1 38 49.2s13.1 29.1 29.2 29.1Z"/><path fill="#fff" d="M125.5 78.3c16.1 0 29.2-13.1 29.2-29.2S141.6 20 125.5 20 96.3 33.1 96.3 49.2s13.1 29.1 29.2 29.1ZM67.2 136.7c16.1 0 29.2-13.1 29.2-29.2S83.3 78.3 67.2 78.3 38 91.4 38 107.5s13.1 29.2 29.2 29.2Z"/><path fill="#fff" d="M125.5 136.7c16.1 0 29.2-13.1 29.2-29.2s-13.1-29.2-29.2-29.2-29.2 13.1-29.2 29.2 13.1 29.2 29.2 29.2Z"/><path fill="#9ABEFF" d="M73.8 56.6v4.8H60.5V37.1h5.3v19.5h8Z"/><path fill="#FF837D" d="M115.6 53.3V37.1h5.3v15.2c0 2.4 2 4.2 4.6 4.2 2.7 0 4.6-1.9 4.6-4.2V37.1h5.3v16.2c0 4.5-4.2 8-9.9 8-5.6-.1-9.9-3.5-9.9-8Z"/><path fill="#98DC9A" d="M58.9 95.4h8c6.6 0 12.1 5.4 12.1 12.1 0 6.6-5.4 12.1-12.1 12.1h-8V95.4Zm7.9 19.5c3.8 0 6.8-3.2 6.8-7.4s-3-7.4-6.8-7.4h-2.7v14.7h2.7v.1Z"/><path fill="#F9DE81" d="M113.4 107.5c0-6.6 5.4-12.1 12.1-12.1 6.8 0 12.1 5.4 12.1 12.1 0 6.6-5.4 12.1-12.1 12.1-6.6 0-12.1-5.5-12.1-12.1Zm19.1 0c0-4-3-7-7-7s-7 3-7 7 3 7 7 7 7-3 7-7ZM60.5 161.9h-.8v10.7h-5.2v-23.5h5.2v8.4h.9l7.7-8.4H75l-10.2 10.5 11.4 13.1h-6.9l-8.8-10.8ZM77.9 149.1h5.2v23.6h-5.2v-23.6ZM110 149.1v23.6h-5.3l-11.5-15.6v15.6H88v-23.6h5.3l11.5 15.6v-15.6h5.2ZM138.1 159.7v1.2c0 6.6-5.4 12.1-12.1 12.1-6.8 0-12.1-5.4-12.1-12.1 0-6.6 5.4-12.1 12.1-12.1 4.6 0 8.6 2.7 10.7 6.5l-4.5 2.3c-1.2-2.3-3.4-3.7-6.2-3.7-4 0-7 3-7 7s3 7 7 7c2.9 0 5.3-1.6 6.5-4.1H126v-4.1h12.1Z"/></g></g><defs><clipPath id="a"><path fill="#fff" d="M0 0h192v192H0z"/></clipPath><clipPath id="b"><path fill="#fff" d="M38 20h116.7v153H38z"/></clipPath></defs></svg>

<svg width="192" height="192" viewBox="0 0 192 192" fill="none" xmlns="http://www.w3.org/2000/svg">
<g clip-path="url(#clip0)">
<g clip-path="url(#clip1)">
<path d="M67.2 78.3C83.3 78.3 96.4 65.2 96.4 49.1C96.4 33 83.3 20 67.2 20C51.1 20 38 33.1 38 49.2C38 65.3 51.1 78.3 67.2 78.3Z" fill="white"/>
<path d="M125.5 78.3C141.6 78.3 154.7 65.2 154.7 49.1C154.7 33 141.6 20 125.5 20C109.4 20 96.3 33.1 96.3 49.2C96.3 65.3 109.4 78.3 125.5 78.3Z" fill="white"/>
<path d="M67.2 136.7C83.3 136.7 96.4 123.6 96.4 107.5C96.4 91.4 83.3 78.3 67.2 78.3C51.1 78.3 38 91.4 38 107.5C38 123.6 51.1 136.7 67.2 136.7Z" fill="white"/>
<path d="M125.5 136.7C141.6 136.7 154.7 123.6 154.7 107.5C154.7 91.4 141.6 78.3 125.5 78.3C109.4 78.3 96.3 91.4 96.3 107.5C96.3 123.6 109.4 136.7 125.5 136.7Z" fill="white"/>
<path d="M73.8 56.6V61.4H60.5V37.1H65.8V56.6H73.8Z" fill="#9ABEFF"/>
<path d="M115.6 53.3V37.1H120.9V52.3C120.9 54.7 122.9 56.5 125.5 56.5C128.2 56.5 130.1 54.6 130.1 52.3V37.1H135.4V53.3C135.4 57.8 131.2 61.3 125.5 61.3C119.9 61.2 115.6 57.8 115.6 53.3Z" fill="#FF837D"/>
<path d="M58.9 95.4H66.9C73.5 95.4 79 100.8 79 107.5C79 114.1 73.6 119.6 66.9 119.6H58.9V95.4ZM66.8 114.9C70.6 114.9 73.6 111.7 73.6 107.5C73.6 103.3 70.6 100.1 66.8 100.1H64.1V114.8H66.8V114.9Z" fill="#98DC9A"/>
<path d="M113.4 107.5C113.4 100.9 118.8 95.4 125.5 95.4C132.3 95.4 137.6 100.8 137.6 107.5C137.6 114.1 132.2 119.6 125.5 119.6C118.9 119.6 113.4 114.1 113.4 107.5ZM132.5 107.5C132.5 103.5 129.5 100.5 125.5 100.5C121.5 100.5 118.5 103.5 118.5 107.5C118.5 111.5 121.5 114.5 125.5 114.5C129.5 114.5 132.5 111.5 132.5 107.5Z" fill="#F9DE81"/>
<path d="M60.5 161.9H59.7V172.6H54.5V149.1H59.7V157.5H60.6L68.3 149.1H75L64.8 159.6L76.2 172.7H69.3L60.5 161.9Z" fill="#F9DE81"/>
<path d="M77.9 149.1H83.1V172.7H77.9V149.1Z" fill="#F9DE81"/>
<path d="M110 149.1V172.7H104.7L93.2 157.1V172.7H88V149.1H93.3L104.8 164.7V149.1H110Z" fill="#F9DE81"/>
<path d="M138.1 159.7V160.9C138.1 167.5 132.7 173 126 173C119.2 173 113.9 167.6 113.9 160.9C113.9 154.3 119.3 148.8 126 148.8C130.6 148.8 134.6 151.5 136.7 155.3L132.2 157.6C131 155.3 128.8 153.9 126 153.9C122 153.9 119 156.9 119 160.9C119 164.9 122 167.9 126 167.9C128.9 167.9 131.3 166.3 132.5 163.8H126V159.7H138.1V159.7Z" fill="#F9DE81"/>
</g>
</g>
<defs>
<clipPath id="clip0">
<rect width="192" height="192" fill="white"/>
</clipPath>
<clipPath id="clip1">
<rect width="116.7" height="153" fill="white" transform="translate(38 20)"/>
</clipPath>
</defs>
</svg>
